www/assets/icons/play_for_work.svg

<svg xmlns="http://www.w3.org/2000/svg" width="24" height="24" viewBox="0 0 24 24" fill='currentColor'><path d="M11 4.5v5.59H7.5l4.5 4.5 4.5-4.5H13V4.5zm-5 9c0 3.31 2.69 6 6 6s6-2.69 6-6h-2c0 2.21-1.79 4-4 4s-4-1.79-4-4z"/></svg>

<svg width="24" height="24" viewBox="0 0 24 24" xmlns="http://www.w3.org/2000/svg" fill='currentColor'><path d="M11 4.5V10.09H7.5L12 14.59L16.5 10.09H13V4.5H11ZM6 13.5C6 16.81 8.69 19.5 12 19.5C15.31 19.5 18 16.81 18 13.5H16C16 15.71 14.21 17.5 12 17.5C9.79 17.5 8 15.71 8 13.5H6Z"/></svg>
